src/icons/apple-desk.svg

<svg width="39" height="47" viewBox="0 0 39 47" fill="none" xmlns="http://www.w3.org/2000/svg">
<path d="M20.6282 47C13.3404 47 7.52991 43.0675 5.8584 41.2568V17.0733C9.87002 9.40805 22.6309 11.5702 32.5795 16.4596C38.2626 19.2527 39.4326 28.3498 38.2626 34.989C37.0925 41.6283 29.7379 47 20.6282 47Z" fill="#C22D22"/>
<path d="M8.58008 40.0728V19.2429C24.2993 13.9472 25.6049 41.2282 19.077 42.1911C13.8546 42.9613 9.90307 41.0998 8.58008 40.0728Z" fill="#FFFDED"/>
<path d="M10.8532 31.7075C10.8179 32.9355 11.3407 35.2904 13.7145 34.8858C16.0883 34.4813 12.796 32.5984 10.8532 31.7075Z" fill="#C22D22"/>
<path d="M10.7601 30.6699C12.6029 30.9492 16.2714 31.1144 16.2033 29.5402C16.1353 27.9661 12.5462 29.6374 10.7601 30.6699Z" fill="#C22D22"/>
<path d="M10.8189 28.3647C12.6608 28.0832 16.0338 27.1764 14.791 25.8019C13.5482 24.4273 11.6251 26.9377 10.8189 28.3647Z" fill="#C22D22"/>
<path d="M9.72036 9.43201C6.38995 10.4785 6.11242 14.4664 6.38995 16.3295H9.72036V13.2375C9.72036 11.4299 14.827 9.94734 17.3803 9.43201V7.64819C16.2146 7.80676 13.0508 8.38551 9.72036 9.43201Z" fill="#22181B" stroke="#C22D22"/>
<path d="M6.06317 2.45279C7.87094 3.12961 10.9257 5.66012 11.9108 7.35286L12.2118 8.91514L10.4722 8.79651C3.37372 8.13586 -2.41075 -0.719817 6.06317 2.45279Z" fill="#0C6535"/>
</svg>

<svg xmlns="http://www.w3.org/2000/svg" width="39" height="47" fill="none">
  <path fill="#C22D22" d="M20.628 47c-7.288 0-13.098-3.932-14.77-5.743V17.073C9.87 9.408 22.631 11.57 32.58 16.46c5.683 2.793 6.853 11.89 5.683 18.529C37.093 41.629 29.738 47 20.628 47Z"/>
  <path fill="#FFFDED" d="M8.58 40.073v-20.83C24.3 13.947 25.605 41.228 19.077 42.19c-5.222.77-9.174-1.091-10.497-2.118Z"/>
  <path fill="#C22D22" d="M10.853 31.707c-.035 1.228.488 3.583 2.861 3.179 2.374-.405-.918-2.288-2.86-3.179ZM10.76 30.67c1.843.28 5.511.444 5.443-1.13-.068-1.574-3.657.097-5.443 1.13ZM10.819 28.365c1.842-.282 5.215-1.189 3.972-2.563-1.243-1.375-3.166 1.136-3.972 2.563Z"/>
  <path fill="#22181B" stroke="#C22D22" d="M9.72 9.432c-3.33 1.046-3.608 5.034-3.33 6.897h3.33v-3.091c0-1.808 5.107-3.29 7.66-3.806V7.648c-1.165.159-4.33.738-7.66 1.784Z"/>
  <path fill="#0C6535" d="M6.063 2.453c1.808.677 4.863 3.207 5.848 4.9l.3 1.562-1.739-.118C3.374 8.136-2.41-.72 6.063 2.453Z"/>
</svg>
